X: 124
T: No_209_It_Moves_about_as_it_Feeds.krn
N: Derived from No_209_It_Moves_about_as_it_Feeds.krn
%%abc-version 2.0
%%abcx-abcm2ps-target-version 5.9.1 (29 Sep 2008)
%%abc-creator hum2abc beta
%%abcx-conversion-date 2019/03/15 08:38:45
%%humdrum-veritas 3957783219
%%humdrum-veritas-data 3818502414
%%linebreak <none>
%%barnumbers 0
L: 1/8
M: 2/4
K: D clef=bass
[K:clef=bass][M:2/4]A,/A,3/A,2 | 
F,/F,3/D,2 | 
G,/F,3/ (G,F,) | 
D,/D,3/A,,2 | 
(3B,,A,,A,,D,2 | 
D,3/D,/D,2 | 
G,F, G,F, | 
D,/D,3/A,,2 | 
B,,/A,,3/D,2 | 
D,/D,3/ D, z ]|:  
A,2F,2 | 
A,F, F, z ||  
[M:3/4]A,F,F,4 ||  
[M:2/4]D,/D,3/A,,2 | 
(3B,,A,,A,,D,2 | 
D,/D,3/D,2 | 
G,F, G,F, | 
D,/D,3/A,,2 | 
(3B,,A,,A,,D,2 | 
D,/D,3/ D, z :|]  



